X: 11
M:6/8
L:1/8
K:G
g|GBd dBd|geg dBd|ece dBG|FAA A2 A|
c'|bgb afd|g/2a/2bg dBG|ece dBg|FAA A2 c'|
bgb afd|ege dBG|1B/2c/2dA AFD|DGG G2:|2B/2c/2dg edc|BGG G2||

